!!!SOCIAL_FUNCTION:	memorial ceremony songs
!!!PDT:	1932
!!!OTL: No_28_The_Superman_Sets_an_Example.krn
!!!REG: Southwest
!!!LANG: Non-Tone
!!!LING_GROUP: Yuman-Cochimi
**kern	**kern
*staff2	*staff1
=1-	=1-
=	=
*clefF4	*clefF4
*k[b-]	*k[b-]
*M2/4	*M2/4
8GG/L	8B-\L
8GG/J	8A\J
8GG/L	8B-\L
8GG/J	8c\J
=2	=2
8GG/L	8.B-\L
8GG/J	.
.	16A\Jk
8GG/L	8A\L
8GG/J	8c\J
=3	=3
2r	8B-\L
.	8B-\J
.	8.B-\L
.	16G\Jk
=4	=4
2r	4A\
.	8r
.	8A\
=5	=5
2r	8B-\L
.	8A\J
.	8A\L
.	8B-\J
=6	=6
2r	8.G\L
.	16D\Jk
.	4D\
=7	=7
2r	8G\L
.	8D\J
.	8D\
.	16r
.	16D\
=8	=8
2r	8.G\L
.	16D\Jk
.	4D\
=9	=9
2r	8G\L
.	8D\J
.	8D\
.	16r
.	16D\
=10	=10
2r	4G\
.	4r
=11:|!	=11:|!
2r	8B-\L
.	8A\J
.	8A\L
.	8B-\J
=12	=12
2r	8B-\L
.	8B-\J
.	8A\L
.	8c\J
=13	=13
2r	4B-\
.	8B-\L
.	8G\J
=14	=14
2r	8A\L
.	8A\J
.	8r
.	8A\
=15	=15
2r	4B-\
.	8B-\L
.	8A\J
=16	=16
2r	8A\L
.	8A\J
.	4A\
=17	=17
2r	8B-\L
.	8A\J
.	8A\L
.	8B-\J
=18	=18
2r	8G\L
.	8D\J
.	8D\L
.	8D\J
=19	=19
2r	8G\L
.	8D\J
.	8D\L
.	8D\J
=20	=20
2r	8.G\L
.	16D\Jk
.	4D\
=21	=21
2r	8G\L
.	8D\J
.	8D\L
.	8D\J
=22	=22
2r	4G\
.	4r
==	==
*-	*-
